X:1
T:*) aka KV 509a on (probably) Luthers text "Wer nicht liebt Wein, Weiber und Gesang"
L:1/8
Q:1/4=120
M:4/4
K:G
V:1 treble nm="Midi_75"
V:1
 B4 B4 | c4 A2 A2 | B2 B2 B2 B2 | c4 A4 | f6 d2 | g2 (fe) d2 e2 | B4 A4 | %7
w: Lie- ber|Frei- städt- ler,|lie- ber Gau- li-|mau- li,|lie- ber|Sta- chel * schwein, wo|gehn Sie|
 GFGA"^W. A. Mozart""^1756 - 1791" BABc | %8
w: hin, wo gehn Sie hin, wo gehn Sie|
O d4"^\"Lieber Freistädler, lieber Gaulimauli\"""^Kanon für 4 Stimmen, KV 232""^*)" G2 GG | A4 D4 | %10
w: hin? Et- wa zum|Fin- ta,|
 d3 G G2 G2 | A4 D4 | d4 z2 A2 | B2 G2 g2 z2 | z2 dd (de)cd | (BA)GF GFGA |O B2 G2 d4 | %17
w: o- der zum Scul-|tet- ti?|Ha, wo-|hin, wo- hin?|Zum Scul- tet- * ti, zum|Fin- * ta, zum Fin- ta, zum Scul-|tet- ti. Ei,|
 z2 d2 d2 d2 | d2 D2 d4- | d2 d2 d2 d2 | d2 D2 C4 | B,4 B,2 C2 | D8 | G2 dc BcBA |O G2 g2 g4- | %25
w: zu kein'~m von|bei- den, ei,|* zu kein'~m von|bei- den, nein,|son- dern zum|Kit-|scha geht der Herr von Li- lien-|feld, und nicht|
 g2 (fe) f2 ed | g2 G2 G4- | GGFE F2 D2 | A2 AA cF F2 | GBdc B2 A2 | G4 F4 | G2 z2 z4 |] %32
w: * der * Frei- städt- ler,|nein, auch nicht|* der Gau- li- mau- li,|we- der der Sta- chel- schwein,|son * dern der Herr von|Li- lien-|feld.|

